!!!OTL: Die elfjaehrige Markgraefin.
!!!OTL-incipit: Solemnis dies advenit
!!!ARE: Europa, Mitteleuropa, Deutschland
!!!YOR: 2, S 294
!!    1646 Handschrift Kloster Seeon
!!!SCT: Q3053G
!!!TXL: @@LAT
!!!YEM: Copyright 1995, estate of Helmut Schaffrath.
**kern	**text
*ICvox	*
!! Mixed meters:  4/4; 6/4
*M4/4	*
*met(c)	*
*k[b-]	*
*F:	*
!LO:TX:a:t=Werlin S.1458	!
{4f	So-
4f	-lem-
4g	-nis
=1	=1
4a	di-
4cc	-es
4a	ad-
4g	-ve-
=2	=2
*M6/4	*
2f	-nit...
4r}	.
{4f	.
4cc	.
4dd	.
=3	=3
*M4/4	*
*met(c)	*
4ee	.
4cc	.
4ff	.
4dd	.
=4	=4
*M6/4	*
2cc	.
4r}	.
{4ff	.
4ee	.
4dd	.
=5	=5
*M4/4	*
*met(c)	*
4cc	.
4dd	.
4cc	.
4b-	.
=6	=6
*M6/4	*
2a	.
4r}	.
{4dd	.
4cc	.
4b-	.
=7	=7
*M4/4	*
*met(c)	*
4a	.
4f	.
4g	.
4g	.
=8	=8
4f;}	.
==	==
!!!AGN: geistlich ?
!! Melodievergleich zu Q0053 , anderes Lied.
!!!ONB: ESAC (Essen Associative Code) Database: BALLADE
!!!AMT: irregular
!!!AIN: vox
!!!EED: Helmut Schaffrath
!!!EEV: 1.0
!!!source: Deutsche Volkslieder mit ihren Melodien. Herausgegeben vom Deutschen Volksliedarchiv. Zweiter Band Balladen. Berlin 1939.
!!!page: 294
!!!ENC: Anna Maria Matuszewska
!!!EEV: 2025/02/17
*-	*-
